_inc/systems/logos/pspminis.svg

<?xml version="1.0" encoding="utf-8"?>
<svg version="1.2" viewBox="0 0 264 104" xmlns="http://www.w3.org/2000/svg">
  <g transform="matrix(0.439517, 0, 0, 0.441672, 0, -0.000558)">
    <path id="path6945" d="M 0 0.002 L 186.936 0.002 L 186.936 55.436 L 7.386 55.436 L 7.386 103.484 L 0 103.484 L 0 48.047 L 179.55 48.047 L 179.55 7.385 L 0 7.385 L 0 0.002" style="fill-opacity: 1; fill: rgb(255, 255, 255);"/>
    <path id="path6947" d="M 420.453 55.436 L 420.453 103.484 L 413.067 103.484 L 413.067 48.047 L 592.614 48.047 L 592.614 7.385 L 413.067 7.385 L 413.067 -0.001 L 600 -0.001 L 600 55.436 L 420.453 55.436" style="fill-opacity: 1; fill: rgb(255, 255, 255);"/>
    <path id="path6949" d="M 282.252 0.002 L 282.252 96.095 L 186.936 96.095 L 186.936 103.484 L 290.049 103.484 L 290.049 7.385 L 385.365 7.385 L 385.365 -0.001 L 282.252 -0.001" style="fill-opacity: 1; fill: rgb(255, 255, 255);"/>
  </g>
  <g transform="matrix(0.439517, 0, 0, 0.441672, 0, -0.000558)">
    <path d="M 567.16 120.068 C 545.66 123.068 532.46 134.168 527.06 154.068 C 526.16 157.468 525.16 167.068 524.66 176.868 C 523.76 197.268 522.16 202.868 515.26 209.168 C 507.16 216.668 501.56 218.368 482.76 219.268 L 469.46 219.868 L 469.46 227.368 L 469.46 234.868 L 484.86 234.668 C 508.66 234.468 520.76 231.068 530.46 221.968 C 540.76 212.268 544.56 200.968 545.56 175.868 C 546.26 161.568 546.66 158.068 548.56 153.868 C 554.46 140.468 568.26 134.368 592.76 134.368 L 600.66 134.368 L 600.66 126.868 L 600.66 119.368 L 585.46 119.468 C 577.06 119.568 568.86 119.868 567.16 120.068 Z" style="fill: rgb(255, 255, 255);"/>
    <path d="M 39.16 145.268 C 29.96 147.968 24.76 151.068 18.06 157.868 C 6.16 169.968 3.76 179.368 3.66 213.068 L 3.66 235.368 L 13.56 235.368 L 23.46 235.368 L 23.86 209.568 C 24.26 186.268 24.56 183.368 26.56 178.268 C 29.56 170.368 34.36 165.268 41.86 161.768 C 47.76 159.068 49.06 158.868 60.16 158.868 C 70.96 158.868 72.66 159.168 77.66 161.468 C 84.66 164.768 89.26 169.368 92.56 176.368 C 95.06 181.768 95.16 182.468 95.66 208.368 L 96.16 234.868 L 106.36 235.168 L 116.56 235.468 L 116.86 208.668 C 117.16 182.168 117.16 181.768 119.76 176.368 C 123.16 169.368 127.76 164.768 134.66 161.468 C 139.66 159.168 141.36 158.868 152.16 158.868 C 163.76 158.868 164.46 158.968 170.86 162.168 C 178.66 165.968 182.76 170.468 185.86 178.368 C 187.76 183.368 188.06 186.368 188.46 209.568 L 188.86 235.368 L 198.76 235.368 L 208.66 235.368 L 208.66 213.068 C 208.56 179.368 206.16 169.968 194.26 157.868 C 183.46 146.868 173.46 143.368 152.46 143.368 C 132.16 143.368 121.16 146.968 111.36 156.968 L 106.26 162.168 L 101.06 156.968 C 95.26 151.168 87.96 147.168 79.16 144.868 C 70.66 142.668 47.16 142.868 39.16 145.268 Z" style="fill: rgb(255, 255, 255);"/>
    <path d="M 235.66 150.868 L 235.66 158.368 L 245.66 158.368 L 255.66 158.368 L 255.66 150.868 L 255.66 143.368 L 245.66 143.368 L 235.66 143.368 L 235.66 150.868 Z" style="fill: rgb(255, 255, 255);"/>
    <path d="M 319.96 144.868 C 311.66 147.168 305.76 150.368 299.66 156.068 C 286.06 168.568 283.66 176.668 283.36 210.868 L 283.16 234.868 L 293.36 235.168 L 303.46 235.468 L 303.86 208.668 C 304.26 178.368 304.56 176.768 312.56 168.068 C 318.46 161.668 324.86 159.168 336.76 158.568 C 358.46 157.468 371.56 166.768 374.56 185.368 C 375.16 188.968 375.66 201.668 375.66 213.568 L 375.66 235.368 L 385.76 235.368 L 395.86 235.368 L 395.46 209.068 C 395.06 185.968 394.76 182.168 392.96 176.668 C 387.66 160.568 375.46 149.168 358.96 144.968 C 351.16 142.968 327.46 142.868 319.96 144.868 Z" style="fill: rgb(255, 255, 255);"/>
    <path d="M 422.66 150.868 L 422.66 158.368 L 433.16 158.368 L 443.66 158.368 L 443.66 150.868 L 443.66 143.368 L 433.16 143.368 L 422.66 143.368 L 422.66 150.868 Z" style="fill: rgb(255, 255, 255);"/>
    <path d="M 235.66 204.868 L 235.66 235.368 L 245.66 235.368 L 255.66 235.368 L 255.66 204.868 L 255.66 174.368 L 245.66 174.368 L 235.66 174.368 L 235.66 204.868 Z" style="fill: rgb(255, 255, 255);"/>
    <path d="M 422.66 204.868 L 422.66 235.368 L 433.16 235.368 L 443.66 235.368 L 443.46 205.068 L 443.16 174.868 L 432.96 174.568 L 422.66 174.268 L 422.66 204.868 Z" style="fill: rgb(255, 255, 255);"/>
  </g>
</svg>

<svg xmlns="http://www.w3.org/2000/svg" viewBox="0 0 264 104"><path d="M0 0h186.94v55.44H7.39v48.04H0V48.05h179.55V7.39H0zm420.45 55.44v48.04h-7.38V48.05H592.6V7.39H413.07v-7.4H600v55.45zM282.25 0v96.1h-95.31v7.38h103.1V7.38h95.32V0z" style="fill-opacity:1;fill:#fff" transform="scale(.43952 .44167)"/><path d="M567.16 120.07c-21.5 3-34.7 14.1-40.1 34-.9 3.4-1.9 13-2.4 22.8-.9 20.4-2.5 26-9.4 32.3-8.1 7.5-13.7 9.2-32.5 10.1l-13.3.6v15l15.4-.2c23.8-.2 35.9-3.6 45.6-12.7 10.3-9.7 14.1-21 15.1-46.1.7-14.3 1.1-17.8 3-22 5.9-13.4 19.7-19.5 44.2-19.5h7.9v-15l-15.2.1c-8.4.1-16.6.4-18.3.6m-528 25.2c-9.2 2.7-14.4 5.8-21.1 12.6-11.9 12.1-14.3 21.5-14.4 55.2v22.3h19.8l.4-25.8c.4-23.3.7-26.2 2.7-31.3 3-7.9 7.8-13 15.3-16.5 5.9-2.7 7.2-2.9 18.3-2.9 10.8 0 12.5.3 17.5 2.6 7 3.3 11.6 7.9 14.9 14.9 2.5 5.4 2.6 6.1 3.1 32l.5 26.5 10.2.3 10.2.3.3-26.8c.3-26.5.3-26.9 2.9-32.3 3.4-7 8-11.6 14.9-14.9 5-2.3 6.7-2.6 17.5-2.6 11.6 0 12.3.1 18.7 3.3 7.8 3.8 11.9 8.3 15 16.2 1.9 5 2.2 8 2.6 31.2l.4 25.8h19.8v-22.3c-.1-33.7-2.5-43.1-14.4-55.2-10.8-11-20.8-14.5-41.8-14.5-20.3 0-31.3 3.6-41.1 13.6l-5.1 5.2-5.2-5.2c-5.8-5.8-13.1-9.8-21.9-12.1-8.5-2.2-32-2-40 .4m196.5 5.6v7.5h20v-15h-20zm84.3-6c-8.3 2.3-14.2 5.5-20.3 11.2-13.6 12.5-16 20.6-16.3 54.8l-.2 24 10.2.3 10.1.3.4-26.8c.4-30.3.7-31.9 8.7-40.6 5.9-6.4 12.3-8.9 24.2-9.5 21.7-1.1 34.8 8.2 37.8 26.8.6 3.6 1.1 16.3 1.1 28.2v21.8h20.2l-.4-26.3c-.4-23.1-.7-26.9-2.5-32.4-5.3-16.1-17.5-27.5-34-31.7-7.8-2-31.5-2.1-39-.1m102.7 6v7.5h21v-15h-21zm-187 54v30.5h20v-61h-20zm187 0v30.5h21l-.2-30.3-.3-30.2-10.2-.3-10.3-.3z" style="fill:#fff" transform="scale(.43952 .44167)"/></svg>
